svgs/materials/action/online_prediction.svg

<svg xmlns="http://www.w3.org/2000/svg" enable-background="new 0 0 24 24" height="24" viewBox="0 0 24 24" width="24"><g><rect fill="none" height="24" width="24"/><path d="M15.5,11.5c0,2-2.5,3.5-2.5,5h-2c0-1.5-2.5-3-2.5-5C8.5,9.57,10.07,8,12,8S15.5,9.57,15.5,11.5z M13,17.5h-2V19h2V17.5z M22,12c0-2.76-1.12-5.26-2.93-7.07l-1.06,1.06C19.55,7.53,20.5,9.66,20.5,12c0,2.34-0.95,4.47-2.49,6.01l1.06,1.06 C20.88,17.26,22,14.76,22,12z M3.5,12c0-2.34,0.95-4.47,2.49-6.01L4.93,4.93C3.12,6.74,2,9.24,2,12c0,2.76,1.12,5.26,2.93,7.07 l1.06-1.06C4.45,16.47,3.5,14.34,3.5,12z M17.5,12c0,1.52-0.62,2.89-1.61,3.89l1.06,1.06C18.22,15.68,19,13.93,19,12 c0-1.93-0.78-3.68-2.05-4.95l-1.06,1.06C16.88,9.11,17.5,10.48,17.5,12z M7.05,16.95l1.06-1.06c-1-1-1.61-2.37-1.61-3.89 c0-1.52,0.62-2.89,1.61-3.89L7.05,7.05C5.78,8.32,5,10.07,5,12C5,13.93,5.78,15.68,7.05,16.95z"/></g></svg>

<?xml version="1.0" encoding="UTF-8" standalone="no"?>
<svg
   enable-background="new 0 0 24 24"
   height="24"
   viewBox="0 0 24 24"
   width="24"
   version="1.1"
   id="svg8"
   sodipodi:docname="online_prediction.svg"
   inkscape:version="1.2 (dc2aeda, 2022-05-15)"
   xmlns:inkscape="http://www.inkscape.org/namespaces/inkscape"
   xmlns:sodipodi="http://sodipodi.sourceforge.net/DTD/sodipodi-0.dtd"
   xmlns="http://www.w3.org/2000/svg"
   xmlns:svg="http://www.w3.org/2000/svg">
  <defs
     id="defs12" />
  <sodipodi:namedview
     id="namedview10"
     pagecolor="#ffffff"
     bordercolor="#000000"
     borderopacity="0.25"
     inkscape:showpageshadow="2"
     inkscape:pageopacity="0.0"
     inkscape:pagecheckerboard="0"
     inkscape:deskcolor="#d1d1d1"
     showgrid="false"
     inkscape:zoom="9.8333333"
     inkscape:cx="12.050847"
     inkscape:cy="12"
     inkscape:window-width="1309"
     inkscape:window-height="456"
     inkscape:window-x="0"
     inkscape:window-y="25"
     inkscape:window-maximized="0"
     inkscape:current-layer="svg8" />
  <path
     id="rect2"
     style="fill:none"
     d="M 0,0 H 24 V 24 H 0 Z" />
  <path
     d="m 15.5,11.5 c 0,2 -2.5,3.5 -2.5,5 H 11 C 11,15 8.5,13.5 8.5,11.5 8.5,9.57 10.07,8 12,8 c 1.93,0 3.5,1.57 3.5,3.5 z m -2.5,6 H 11 V 19 h 2 z M 22,12 C 22,9.24 20.88,6.74 19.07,4.93 l -1.06,1.06 c 1.54,1.54 2.49,3.67 2.49,6.01 0,2.34 -0.95,4.47 -2.49,6.01 l 1.06,1.06 C 20.88,17.26 22,14.76 22,12 Z M 3.5,12 C 3.5,9.66 4.45,7.53 5.99,5.99 L 4.93,4.93 C 3.12,6.74 2,9.24 2,12 c 0,2.76 1.12,5.26 2.93,7.07 L 5.99,18.01 C 4.45,16.47 3.5,14.34 3.5,12 Z m 14,0 c 0,1.52 -0.62,2.89 -1.61,3.89 l 1.06,1.06 C 18.22,15.68 19,13.93 19,12 19,10.07 18.22,8.32 16.95,7.05 l -1.06,1.06 c 0.99,1 1.61,2.37 1.61,3.89 z M 7.05,16.95 8.11,15.89 C 7.11,14.89 6.5,13.52 6.5,12 6.5,10.48 7.12,9.11 8.11,8.11 L 7.05,7.05 C 5.78,8.32 5,10.07 5,12 c 0,1.93 0.78,3.68 2.05,4.95 z"
     id="path4" />
</svg>
